X:1
T:One Night In Santa Cristo
M:4/4
L:1/4
C:Liam O'Flynn
S:"Geoff Wright" <brackenriggband:hotmail.com> tradtunes 2001-8-29
K:D
FA |:\
d2d/2e/2 d/2c/2 | dAFA |\
d2d/2e/2 d/2c/2 | dAFA |
G2G/2F/2E/2G/2 | FBAd |\
c3/2B/2 A/2G/2F/2E/2 |1 D2FA :|2 D4 |]
[| A A/2F/2 D/2E/2F/2G/2 | E3/2 F/2 G2 |\
G/2A/2G/2F/2 E/2F/2G/2A/2 | F3/2 A/2D2 |
A A/2F/2 D/2E/2F/2G/2 | E3/2 F/2 G2 |\
G/2A/2G/2F/2 E/2D/2E/2F/2 | D4 |]
|: F3 G |\
A3 d | c3/2 e/2 dB | A4 | F3 G |\
A3 d | c3/2 e/2 dB | A4 | d3 B |
G3/2 A/2 Bd | c3 A | F3/2 G/2 Ac | B3 G |\
E3/2 F/2 GA |1 (F4 | F2)A2 :|2 F2 A/2B/2A/2B/2 | A2F/2A/2F/2A/2 |]
[| d2 A/2B/2A/2B/2 | A2FA |\
(d2 d/2) c/2 B/2c/2 | d/2c/2B/2c/2 d/2c/2B/2c/2 |\
d/2e/2d/2c/2 B/2c/2d/2B/2 | c/2d/2c/2B/2 A/2B/2c/2A/2 |
B/2c/2B/2A/2 G/2A/2B/2G/2 | A/2B/2A/2G/2 F/2G/2A/2F/2 |\
F/2G/2F/2E/2 D/2E/2F/2D/2 | E/2F/2E/2D/2 C/2D/2E/2C/2 | D2FA |]
